ix/command-square_bold.svg

<svg viewBox="0 0 24 24" fill="none" xmlns="http://www.w3.org/2000/svg" height="1em" width="1em">
  <path d="M16.19 2H7.81C4.17 2 2 4.17 2 7.81v8.37C2 19.83 4.17 22 7.81 22h8.37c3.64 0 5.81-2.17 5.81-5.81V7.81C22 4.17 19.83 2 16.19 2ZM9.6 16.2c0 .99-.81 1.8-1.8 1.8S6 17.19 6 16.2s.81-1.8 1.8-1.8h.8c.55 0 1 .45 1 1v.8Zm0-7.6c0 .55-.45 1-1 1h-.8C6.81 9.6 6 8.79 6 7.8S6.81 6 7.8 6s1.8.81 1.8 1.8v.8Zm4.55 4.65c0 .49-.4.9-.9.9h-2.51c-.49 0-.9-.4-.9-.9v-2.51c0-.49.4-.9.9-.9h2.51c.49 0 .9.4.9.9v2.51ZM16.2 18c-.99 0-1.8-.81-1.8-1.8v-.8c0-.55.45-1 1-1h.8c.99 0 1.8.81 1.8 1.8s-.81 1.8-1.8 1.8Zm0-8.4h-.8c-.55 0-1-.45-1-1v-.8c0-.99.81-1.8 1.8-1.8s1.8.81 1.8 1.8-.81 1.8-1.8 1.8Z" fill="#292D32"/>
</svg>

<svg viewBox="0 0 24 24" fill="none" xmlns="http://www.w3.org/2000/svg" height="1em" width="1em">
  <path d="M16.19 2H7.81C4.17 2 2 4.17 2 7.81V16.18C2 19.83 4.17 22 7.81 22H16.18C19.82 22 21.99 19.83 21.99 16.19V7.81C22 4.17 19.83 2 16.19 2ZM9.6 16.2C9.6 17.19 8.79 18 7.8 18C6.81 18 6 17.19 6 16.2C6 15.21 6.81 14.4 7.8 14.4H8.6C9.15 14.4 9.6 14.85 9.6 15.4V16.2ZM9.6 8.6C9.6 9.15 9.15 9.6 8.6 9.6H7.8C6.81 9.6 6 8.79 6 7.8C6 6.81 6.81 6 7.8 6C8.79 6 9.6 6.81 9.6 7.8V8.6ZM14.15 13.25C14.15 13.74 13.75 14.15 13.25 14.15H10.74C10.25 14.15 9.84 13.75 9.84 13.25V10.74C9.84 10.25 10.24 9.84 10.74 9.84H13.25C13.74 9.84 14.15 10.24 14.15 10.74V13.25ZM16.2 18C15.21 18 14.4 17.19 14.4 16.2V15.4C14.4 14.85 14.85 14.4 15.4 14.4H16.2C17.19 14.4 18 15.21 18 16.2C18 17.19 17.19 18 16.2 18ZM16.2 9.6H15.4C14.85 9.6 14.4 9.15 14.4 8.6V7.8C14.4 6.81 15.21 6 16.2 6C17.19 6 18 6.81 18 7.8C18 8.79 17.19 9.6 16.2 9.6Z" fill="#292D32"/>
</svg>
